packages/kaspersky-hexa-ui-icons/src/iconsSVGs/28x20/FlagVg.svg

<svg width="28" height="20" viewBox="0 0 28 20" fill="none" xmlns="http://www.w3.org/2000/svg">
<g clip-path="url(#clip0_5138_2085)">
<rect width="28" height="20" rx="2" fill="white"/>
<mask id="mask0_5138_2085" style="mask-type:luminance" maskUnits="userSpaceOnUse" x="0" y="0" width="28" height="20">
<rect width="28" height="20" rx="2" fill="white"/>
</mask>
<g mask="url(#mask0_5138_2085)">
<rect width="28" height="20" fill="#07319C"/>
<mask id="mask1_5138_2085" style="mask-type:alpha" maskUnits="userSpaceOnUse" x="0" y="0" width="12" height="10">
<rect width="12" height="9.33333" fill="url(#paint0_linear_5138_2085)"/>
</mask>
<g mask="url(#mask1_5138_2085)">
<mask id="path-5-outside-1_5138_2085" maskUnits="userSpaceOnUse" x="-2" y="-2" width="15" height="13" fill="black">
<rect fill="white" x="-2" y="-2" width="15" height="13"/>
<path fill-rule="evenodd" clip-rule="evenodd" d="M4.66667 4L0 0H0.666667L5.33333 3.33333H6.66667L12 0V0.495127C12 0.602778 11.948 0.703801 11.8604 0.766372L7.33333 4V5.33333L11.5475 8.94545C11.7029 9.07867 11.6087 9.33333 11.404 9.33333C11.358 9.33333 11.3132 9.31897 11.2758 9.29226L6.66667 6H5.33333L0 9.33333V8.66667L4.66667 5.33333V4Z"/>
</mask>
<path fill-rule="evenodd" clip-rule="evenodd" d="M4.66667 4L0 0H0.666667L5.33333 3.33333H6.66667L12 0V0.495127C12 0.602778 11.948 0.703801 11.8604 0.766372L7.33333 4V5.33333L11.5475 8.94545C11.7029 9.07867 11.6087 9.33333 11.404 9.33333C11.358 9.33333 11.3132 9.31897 11.2758 9.29226L6.66667 6H5.33333L0 9.33333V8.66667L4.66667 5.33333V4Z" fill="#DB1E36"/>
<path fill-rule="evenodd" clip-rule="evenodd" d="M4.66667 4L0 0H0.666667L5.33333 3.33333H6.66667L12 0V0.495127C12 0.602778 11.948 0.703801 11.8604 0.766372L7.33333 4V5.33333L11.5475 8.94545C11.7029 9.07867 11.6087 9.33333 11.404 9.33333C11.358 9.33333 11.3132 9.31897 11.2758 9.29226L6.66667 6H5.33333L0 9.33333V8.66667L4.66667 5.33333V4Z" stroke="white" stroke-width="1.33333" mask="url(#path-5-outside-1_5138_2085)"/>
<path fill-rule="evenodd" clip-rule="evenodd" d="M0 3.33333V6H4.66667V9.33333C4.66667 9.70152 4.96514 10 5.33333 10H6.66667C7.03486 10 7.33333 9.70152 7.33333 9.33333V6H12C12.3682 6 12.6667 5.70152 12.6667 5.33333V4C12.6667 3.63181 12.3682 3.33333 12 3.33333H7.33333V0H4.66667V3.33333H0Z" fill="white"/>
<path fill-rule="evenodd" clip-rule="evenodd" d="M0 4H5.33333V3.33333V0H6.66667V3.33333V4H12V5.33333H6.66667V6V9.33333H5.33333V6V5.33333H0V4Z" fill="#DB1E36"/>
</g>
</g>
<g clip-path="url(#clip1_5138_2085)">
<path fill-rule="evenodd" clip-rule="evenodd" d="M17.3333 10C17.3333 8.90627 17.3333 7.61316 17.3333 6.66583C17.3333 5.92945 17.9303 5.33334 18.6667 5.33334H22.6667C23.403 5.33334 24 5.92945 24 6.66583C24 7.61316 24 8.90627 24 10C24 13.3333 20.6667 14.6667 20.6667 14.6667C20.6667 14.6667 17.3333 13.3333 17.3333 10Z" fill="#008339"/>
<mask id="mask2_5138_2085" style="mask-type:luminance" maskUnits="userSpaceOnUse" x="17" y="5" width="7" height="10">
<path fill-rule="evenodd" clip-rule="evenodd" d="M17.3333 10C17.3333 8.90627 17.3333 7.61316 17.3333 6.66583C17.3333 5.92945 17.9303 5.33334 18.6667 5.33334H22.6667C23.403 5.33334 24 5.92945 24 6.66583C24 7.61316 24 8.90627 24 10C24 13.3333 20.6667 14.6667 20.6667 14.6667C20.6667 14.6667 17.3333 13.3333 17.3333 10Z" fill="white"/>
</mask>
<g mask="url(#mask2_5138_2085)">
<path fill-rule="evenodd" clip-rule="evenodd" d="M20 7.33335C20 7.70154 19.7015 8.00002 19.3333 8.00002C18.9651 8.00002 18.6667 7.70154 18.6667 7.33335C18.6667 6.96516 18.9651 6.66669 19.3333 6.66669C19.7015 6.66669 20 6.96516 20 7.33335ZM19.3333 9.33335C18.9651 9.33335 18.6667 9.03488 18.6667 8.66669C18.6667 8.2985 18.9651 8.00002 19.3333 8.00002C19.7015 8.00002 20 8.2985 20 8.66669C20 9.03488 19.7015 9.33335 19.3333 9.33335ZM19.3333 10.6667C19.7015 10.6667 20 10.3682 20 10C20 9.63183 19.7015 9.33335 19.3333 9.33335C18.9651 9.33335 18.6667 9.63183 18.6667 10C18.6667 10.3682 18.9651 10.6667 19.3333 10.6667ZM19.3333 10.6667C18.9651 10.6667 18.6667 10.9652 18.6667 11.3334C18.6667 11.7015 18.9651 12 19.3333 12C19.7015 12 20 11.7015 20 11.3334C20 10.9652 19.7015 10.6667 19.3333 10.6667ZM22 12C22.3682 12 22.6667 11.7015 22.6667 11.3334C22.6667 10.9652 22.3682 10.6667 22 10.6667C22.3682 10.6667 22.6667 10.3682 22.6667 10C22.6667 9.63183 22.3682 9.33335 22 9.33335C22.3682 9.33335 22.6667 9.03488 22.6667 8.66669C22.6667 8.2985 22.3682 8.00002 22 8.00002C22.3682 8.00002 22.6667 7.70154 22.6667 7.33335C22.6667 6.96516 22.3682 6.66669 22 6.66669C21.6318 6.66669 21.3333 6.96516 21.3333 7.33335C21.3333 7.70154 21.6318 8.00002 22 8.00002C21.6318 8.00002 21.3333 8.2985 21.3333 8.66669C21.3333 9.03488 21.6318 9.33335 22 9.33335C21.6318 9.33335 21.3333 9.63183 21.3333 10C21.3333 10.3682 21.6318 10.6667 22 10.6667C21.6318 10.6667 21.3333 10.9652 21.3333 11.3334C21.3333 11.7015 21.6318 12 22 12Z" fill="#FFD033"/>
<ellipse cx="20.6667" cy="9.33334" rx="0.666667" ry="2" fill="white"/>
</g>
</g>
<path d="M16.6667 13.3333C16.6667 14.6048 18.4879 15.3333 20.6667 15.3333C22.8455 15.3333 24.6667 14.6048 24.6667 13.3333C24.6667 12.9651 24.3682 12.6667 24 12.6667C23.6318 12.6667 23.3333 12.9651 23.3333 13.3333C23.3333 13.3461 23.1717 13.4989 22.7761 13.6571C22.239 13.872 21.4824 14 20.6667 14C19.8509 14 19.0943 13.872 18.5572 13.6571C18.1616 13.4989 18 13.3461 18 13.3333C18 12.9651 17.7015 12.6667 17.3333 12.6667C16.9651 12.6667 16.6667 12.9651 16.6667 13.3333Z" fill="#FFD033"/>
</g>
<defs>
<linearGradient id="paint0_linear_5138_2085" x1="0" y1="0" x2="0" y2="9.33333" gradientUnits="userSpaceOnUse">
<stop stop-color="#042C90"/>
<stop offset="1" stop-color="#00247E"/>
</linearGradient>
<clipPath id="clip0_5138_2085">
<rect width="28" height="20" fill="white"/>
</clipPath>
<clipPath id="clip1_5138_2085">
<rect width="7" height="10" fill="white" transform="translate(17.3333 5.33334)"/>
</clipPath>
</defs>
</svg>

<svg xmlns="http://www.w3.org/2000/svg" width="28" height="20" fill="none" viewBox="0 0 28 20"><g clip-path="url(#a)"><rect width="28" height="20" fill="#fff" rx="2"/><mask id="b" width="28" height="20" x="0" y="0" maskUnits="userSpaceOnUse" style="mask-type:luminance"><rect width="28" height="20" fill="#fff" rx="2"/></mask><g mask="url(#b)"><path fill="#07319c" d="M0 0h28v20H0z"/><mask id="d" width="12" height="10" x="0" y="0" maskUnits="userSpaceOnUse" style="mask-type:alpha"><path fill="url(#c)" d="M0 0h12v9.3333H0z"/></mask><g mask="url(#d)"><mask id="e" width="15" height="13" x="-2" y="-2" fill="#000" maskUnits="userSpaceOnUse"><path fill="#fff" d="M-2-2h15v13H-2z"/><path fill-rule="evenodd" d="M4.6667 4 0 0h.6667l4.6666 3.3333h1.3334L12 0v.4951a.333.333 0 0 1-.1396.2713L7.3334 4v1.3333l4.2141 3.6121c.1554.1333.0612.388-.1435.388a.22.22 0 0 1-.1282-.0411L6.6667 6H5.3333L0 9.3333v-.6666l4.6667-3.3334z" clip-rule="evenodd"/></mask><path fill="#db1e36" fill-rule="evenodd" d="M4.6667 4 0 0h.6667l4.6666 3.3333h1.3334L12 0v.4951a.333.333 0 0 1-.1396.2713L7.3334 4v1.3333l4.2141 3.6121c.1554.1333.0612.388-.1435.388a.22.22 0 0 1-.1282-.0411L6.6667 6H5.3333L0 9.3333v-.6666l4.6667-3.3334z" clip-rule="evenodd"/><path stroke="#fff" d="M4.6667 4 0 0h.6667l4.6666 3.3333h1.3334L12 0v.4951a.333.333 0 0 1-.1396.2713L7.3334 4v1.3333l4.2141 3.6121c.1554.1333.0612.388-.1435.388a.22.22 0 0 1-.1282-.0411L6.6667 6H5.3333L0 9.3333v-.6666l4.6667-3.3334z" clip-rule="evenodd" mask="url(#e)"/><path fill="#fff" fill-rule="evenodd" d="M0 3.3333V6h4.6667v3.3333c0 .3682.2984.6667.6666.6667h1.3334a.6667.6667 0 0 0 .6666-.6667V6H12a.6667.6667 0 0 0 .6667-.6667V4A.6667.6667 0 0 0 12 3.3333H7.3333V0H4.6667v3.3333z" clip-rule="evenodd"/><path fill="#db1e36" fill-rule="evenodd" d="M0 4h5.3333V0h1.3334v4H12v1.3333H6.6667v4H5.3333v-4H0z" clip-rule="evenodd"/></g></g><g clip-path="url(#f)"><path fill="#008339" fill-rule="evenodd" d="M17.3333 10V6.6658c0-.7363.597-1.3325 1.3334-1.3325h4c.7363 0 1.3333.5961 1.3333 1.3325V10c0 3.3333-3.3333 4.6667-3.3333 4.6667S17.3333 13.3333 17.3333 10" clip-rule="evenodd"/><mask id="g" width="7" height="10" x="17" y="5" maskUnits="userSpaceOnUse" style="mask-type:luminance"><path fill="#fff" fill-rule="evenodd" d="M17.3333 10V6.6658c0-.7363.597-1.3325 1.3334-1.3325h4c.7363 0 1.3333.5961 1.3333 1.3325V10c0 3.3333-3.3333 4.6667-3.3333 4.6667S17.3333 13.3333 17.3333 10" clip-rule="evenodd"/></mask><g mask="url(#g)"><path fill="#ffd033" fill-rule="evenodd" d="M20 7.3334a.6667.6667 0 1 1-1.3334 0 .6667.6667 0 0 1 1.3334 0m-.6667 2a.6666.6666 0 0 1-.6666-.6667.6666.6666 0 1 1 1.3333 0 .6667.6667 0 0 1-.6667.6666m0 1.3333a.6667.6667 0 1 0 0-1.3334.6667.6667 0 0 0 0 1.3334m0 0a.6666.6666 0 1 0 0 1.3333.6666.6666 0 0 0 0-1.3333M22 12a.6667.6667 0 1 0 0-1.3333.6667.6667 0 0 0 0-1.3334A.6667.6667 0 1 0 22 8a.6667.6667 0 1 0 0-1.3334A.6667.6667 0 0 0 22 8a.6667.6667 0 1 0 0 1.3333.6667.6667 0 1 0 0 1.3334A.6667.6667 0 0 0 22 12" clip-rule="evenodd"/><ellipse cx="21" cy="9" fill="#fff" rx="1" ry="2"/></g></g><path fill="#ffd033" d="M16.6667 13.3333c0 1.2715 1.8212 2 4 2s4-.7285 4-2A.6666.6666 0 0 0 24 12.6667a.6666.6666 0 0 0-.6667.6666c0 .0128-.1616.1656-.5572.3238-.5371.2149-1.2937.3429-2.1094.3429-.8158 0-1.5724-.128-2.1095-.3429-.3956-.1582-.5572-.311-.5572-.3238a.6666.6666 0 0 0-1.3333 0"/></g><defs><clipPath id="a"><path fill="#fff" d="M0 0h28v20H0z"/></clipPath><clipPath id="f"><path fill="#fff" d="M17.3333 5.3333h7v10h-7z"/></clipPath><linearGradient id="c" x1="0" x2="0" y1="0" y2="9" gradientUnits="userSpaceOnUse"><stop stop-color="#042c90"/><stop offset="1" stop-color="#00247e"/></linearGradient></defs></svg>
